Hatter-kde/actions/16/gnumeric-formulaguru.svg

<svg xmlns="http://www.w3.org/2000/svg" viewBox="0 0 16 16">
  <defs id="defs3051">
    <style type="text/css" id="current-color-scheme">
      .ColorScheme-Text {
        color:#363636;
      }
      </style>
  </defs>
 <path style="fill:currentColor;fill-opacity:1;stroke:none" 
       d="M 7 2 C 5.89543 2 5 2.89543 5 4 L 5 5 L 5 6 L 5 7 L 3 7 L 3 8 L 5 8 L 5 9 L 5 11 L 5 14 L 6 14 L 6 9 L 6 8 L 8 8 L 8 7 L 6 7 L 6 5 L 6 4 C 6 3.44772 6.44772 3 7 3 L 8 3 L 9 3 L 9 2 L 8 2 L 7 2 z M 9.4648438 9.7578125 L 8.7578125 10.464844 L 10.171875 11.878906 L 8.7578125 13.292969 L 9.4648438 14 L 10.878906 12.585938 L 12.292969 14 L 13 13.292969 L 11.585938 11.878906 L 13 10.464844 L 12.292969 9.7578125 L 10.878906 11.171875 L 9.4648438 9.7578125 z "
     class="ColorScheme-Text"
     />
</svg>

<?xml version="1.0" encoding="UTF-8"?>
<svg viewBox="0 0 16 16" xmlns="http://www.w3.org/2000/svg">
 <defs id="defs3051">
  <style id="current-color-scheme" type="text/css">.ColorScheme-Text {
        color:#363636;
      }</style>
 </defs>
 <path class="ColorScheme-Text" d="m7 2c-1.1046 0-2 0.89543-2 2v1 1 1h-2v1h2v1 2 3h1v-5-1h2v-1h-2v-2-1c0-0.55228 0.44772-1 1-1h1 1v-1h-1-1zm2.4648 7.7578-0.70703 0.70703 1.4141 1.4141-1.4141 1.4141 0.70703 0.70703 1.4141-1.4141 1.4141 1.4141 0.70703-0.70703-1.4141-1.4141 1.4141-1.4141-0.70703-0.70703-1.4141 1.4141-1.4141-1.4141z" fill="currentColor"/>
</svg>
